!!!COM: Palestrina, Giovanni Perluigi da
!!!OPR: Missa O magnum mysterium
!!!OMD: Kyrie II
!!!OTL: First Section
**kern	**kern	**kern	**kern	**kern
*Ibass	*Itenor	*Icalto	*Icalto	*Icant
!Bassus	!Tenor	!Altus 2	!Altus 1	!Cantus
*clefF4	*clefGv2	*clefG2	*clefG2	*clefG2
*k[]	*k[]	*k[]	*k[]	*k[]
*E:phr	*E:phr	*E:phr	*E:phr	*E:phr
*M3/2	*M3/2	*M3/2	*M3/2	*M3/2
=1	=1	=1	=1	=1
1r	1c	1g	1e	1r
2r	2B	2g	2d	2r
=2	=2	=2	=2	=2
1r	1A	1f	1c	1r
2r	2G#	2e	2B	2r
=3	=3	=3	=3	=3
1r	1A	1e	1c	1r
2r	2F	2d	2A	2r
=4	=4	=4	=4	=4
1C	2E	1e	2G	1cc
.	2e	.	2g	.
2G	2d	2r	2g	2b
=5	=5	=5	=5	=5
1A	1c	1r	1e	1a
2E	2B	2r	2e	2g#
=6	=6	=6	=6	=6
1F	2A	1r	1c	1a
.	4F	.	.	.
.	4G	.	.	.
2D	4A	2r	2d	2f
.	4B	.	.	.
=7	=7	=7	=7	=7
1C	1c	1g	1G	1e
2r	2F	2f	2r	2a
=8	=8	=8	=8	=8
1r	1C	1e	1c	2.g
.	.	.	.	4f
2r	2r	2d	2B-	2g
=9	=9	=9	=9	=9
1F	2r	2.c	1A	1.a
.	1c	.	.	.
.	.	4d	.	.
2E	.	2e	2G	.
=10	=10	=10	=10	=10
1D	2B-	1f	1d	1r
.	1A	.	.	.
2C#	.	2e	2e	2r
=11	=11	=11	=11	=11
1D	2A	1d	1f	1r
.	2F	.	.	.
2BB-	2G	2r	2d	2r
=12	=12	=12	=12	=12
4AA	2A	1r	2f	1cc
4BB	.	.	.	.
4C	2A	.	2.e	.
4D	.	.	.	.
2E	2G	2r	.	2b
.	.	.	4d	.
=13	=13	=13	=13	=13
1F	2.A	1f	4c	1a
.	.	.	4B	.
.	.	.	2.c	.
.	4B	.	.	.
2C	2c	2e	.	2g
.	.	.	4B	.
=14	=14	=14	=14	=14
1r	1F	2d	4A	1a
.	.	.	4G	.
.	.	2c	1A	.
2r	2D	2d	.	2f
=15	=15	=15	=15	=15
1r	1E	2.B	2G	1e
.	.	.	2g	.
.	.	4c	.	.
2r	2F	2A	2f	2a
=16	=16	=16	=16	=16
1r	2C	2c	1e	2.g
.	2E	2B	.	.
.	.	.	.	4e
2r	2F	2A	2d	2a
=17	=17	=17	=17	=17
1r	2E	2B	1e	1g
.	1A	1c	.	.
2r	.	.	2c	2f#
=18	=18	=18	=18	=18
1r	1G	2r	2.B	[1.g
.	.	2d	.	.
.	.	.	8c	.
.	.	.	8d	.
2r	2r	2c	2e	.
=19	=19	=19	=19	=19
1G	2r	1B	1.d	1.g]
.	1d	.	.	.
2F	.	2A	.	.
=20	=20	=20	=20	=20
1E	2c	1G	1g	1r
.	2B	.	.	.
2D	2d	2A	2f	2r
=21	=21	=21	=21	=21
2E	2.c	2G	1e	1r
2C	.	1g	.	.
.	8B	.	.	.
.	8A	.	.	.
2G	2B	.	2d	2r
=22	=22	=22	=22	=22
2.C	2.c	1g	1.e	1cc
4D	4B	.	.	.
2E	2G	2r	.	2b
=23	=23	=23	=23	=23
2F	1A	1f	2c	1a
2D	.	.	2d	.
2E	2r	2e	2B	2g#
=24	=24	=24	=24	=24
2F	1r	1d	2A	2a
2D	.	.	2.a	2f
2A	2r	2c#	.	2e
.	.	.	4g	.
=25	=25	=25	=25	=25
1D	1r	1d	1f	1a
2E	2r	2B	2e	2g#
=26	=26	=26	=26	=26
1AA	1c	2A	2e	1a
.	.	2e	2r	.
2r	2B	2d	2g	2r
=27	=27	=27	=27	=27
1r	1A	2.c	2f	1cc
.	.	.	1e	.
.	.	4A	.	.
2r	2G	2B	.	2b
=28	=28	=28	=28	=28
1r	1A	1c	2f	1a
.	.	.	4e	.
.	.	.	4c	.
2r	2F	2A	2d	2a
=29	=29	=29	=29	=29
1C	2.E	2r	2e	1g
.	.	2c	2e	.
.	4F	.	.	.
2GG	2G	2B	2d	2r
=30	=30	=30	=30	=30
4AA	1E	1A	2c	1cc
4BB	.	.	.	.
4C	.	.	1e	.
4D	.	.	.	.
2E	2r	2G#	.	2b
=31	=31	=31	=31	=31
1AA	1c	1A	1e	1a
2E	2B	2B	2e	2g#
=32	=32	=32	=32	=32
1AA	1A	1c	1.e	1a
2AA	2A	2c	.	2a
=33	=33	=33	=33	=33
[1.E	[1.G#	[1.B	[1.e	[1.b
=34	=34	=34	=34	=34
1.E]	1.G#]	1.B]	1.e]	1.b]
*-	*-	*-	*-	*-
!!!CDT: 1525/^1526/-1594/2/2
!!!OCY: Italia
!!!AGN: Mass (Parody)
!!!AST: renaissance, vocal
!!!ASW: Motet 1569 (Palestrina)
!!!PWK: Masses, Book 4
!!!RNB: Cadence finals: A,C,G,F
!!!YOR: Le Opere Complete, v. 10, p. 150
!!!YOO: Rome, Italy: Fratelli Scalera
!!!END: 1992//
!!!EED: John Miller
!!!YEC: Copyright 2000, John Miller
!!!YEN: United States of America
!!!YEM: Rights to all derivative electronic formats reserved.
!!!YEM: Refer to licensing agreement for further details.
!!!YEM: This file must be accompanied by the licensing agreement.
!!!YEM: A copy of the licensing agreement may be found at http://www.music-cog.ohio-state.edu/HumdrumDatabases/Palestrina/license.txt
!!!EMD: converted to Humdrum by Bret Aarden
